X: 11532
T: Eddie Moloney's Favourite
R: reel
M: 4/4
K: Edorian
B2GB EBGB|A2FA DAFA|B2GB EBGA|(3Bcd BA GEE2|
B2GB eBGB|A2FA DAFA|dBBA B2BA|(3Bcd BA Gee2||
g2ef gfed|(3Bcd Ba gee2|gfef gefd|Beed (3Bcd ef|
~g3e gfed|BzBA GEAG|~E3F ~G3A|(3Bcd ef gfed||

